packages/dnb-eufemia/assets/icons/scooter_medium.svg

<svg width="24" height="24" viewBox="0 0 24 24" fill="none" xmlns="http://www.w3.org/2000/svg">
<g clip-path="url(#clip0_1350_2)">
<path d="M13.239 13.206C12.2416 11.9091 10.6341 11.1673 9.00005 11.25C6.85109 11.25 4.60532 10.9899 2.78732 12.378C1.80817 13.1256 1.10836 14.1803 0.800047 15.373C0.561167 16.2929 1.28591 17.2495 2.25105 17.25M2.25105 17.25H9.75005M2.25105 17.25L2.25005 18C2.25005 20.0425 3.95755 21.75 6.00005 21.75C8.04255 21.75 9.75005 20.0425 9.75005 18V17.25M17.251 12.75C17.251 13.9435 16.7769 15.0881 15.933 15.932C15.0891 16.7759 13.9445 17.25 12.751 17.25H9.75005M12.751 2.25H14.251C15.885 2.25 17.251 3.616 17.251 5.25L17.25 6.75M12.75 17.25H14.251M20.383 12.75C21.0035 12.7499 21.6088 12.9422 22.1154 13.3003C22.6221 13.6585 23.0052 14.165 23.212 14.75C23.2904 15.4785 23.2567 16.2147 23.112 16.933C22.9737 17.129 22.7399 17.25 22.5 17.25H21.75M17.25 6.75C17.25 7.68147 17.7049 8.59112 18.45 9.15C19.1597 9.68223 20.25 9.16184 20.25 8.25V5.25C20.25 5.04107 20.1919 4.83628 20.082 4.65855C19.743 4.10996 18.9713 3.95907 18.45 4.35C17.7049 4.90888 17.25 5.81853 17.25 6.75ZM11 8.5H3.50005M14.251 17.25L14.25 18C14.25 20.0425 15.9575 21.75 18 21.75C20.0426 21.75 21.75 20.0425 21.75 18V17.25M14.251 17.25H21.75" stroke="black" stroke-width="1.5" stroke-linecap="round" stroke-linejoin="round"/>
</g>
<defs>
<clipPath id="clip0_1350_2">
<rect width="24" height="24" fill="white"/>
</clipPath>
</defs>
</svg>

<svg width="24" height="24" viewBox="0 0 24 24" fill="none" xmlns="http://www.w3.org/2000/svg"><g clip-path="url(#a)"><path d="M13.239 13.206A5.066 5.066 0 0 0 9 11.25c-2.149 0-4.395-.26-6.213 1.128A5.5 5.5 0 0 0 .8 15.373c-.239.92.486 1.877 1.451 1.877m0 0h7.5m-7.5 0L2.25 18c0 2.043 1.708 3.75 3.75 3.75 2.043 0 3.75-1.707 3.75-3.75v-.75m7.501-4.5a4.5 4.5 0 0 1-4.5 4.5h-3m3-15h1.5c1.634 0 3 1.366 3 3l-.001 1.5m-4.5 10.5h1.501m6.132-4.5a3 3 0 0 1 2.829 2 7.17 7.17 0 0 1-.1 2.183.759.759 0 0 1-.612.317h-.75m-4.5-10.5c0 .931.455 1.841 1.2 2.4.71.532 1.8.012 1.8-.9v-3a1.12 1.12 0 0 0-.168-.591 1.14 1.14 0 0 0-1.632-.309 3.037 3.037 0 0 0-1.2 2.4ZM11 8.5H3.5m10.751 8.75-.001.75c0 2.043 1.707 3.75 3.75 3.75s3.75-1.707 3.75-3.75v-.75m-7.499 0h7.499" stroke="#000" stroke-width="1.5" stroke-linecap="round" stroke-linejoin="round"/></g><defs><clipPath id="a"><path fill="#fff" d="M0 0h24v24H0z"/></clipPath></defs></svg>
